src/assets/icons/letters,fancy,sans-r.svg

<svg width="48" height="48" viewBox="0 0 48 48" fill="none" xmlns="http://www.w3.org/2000/svg">
<g clip-path="url(#clip0_86:307)">
<path d="M12.4034 38H18.554V27.6875H23.0426L28.554 38H35.3438L29.1648 26.6932C32.4744 25.2727 34.3068 22.3892 34.3068 18.4119C34.3068 12.6307 30.4858 8.90909 23.8807 8.90909H12.4034V38ZM18.554 22.7443V13.9375H22.7017C26.2528 13.9375 27.9716 15.5142 27.9716 18.4119C27.9716 21.2955 26.2528 22.7443 22.7301 22.7443H18.554Z" fill="black"/>
</g>
<defs>
<clipPath id="clip0_86:307">
<rect width="48" height="48" fill="white"/>
</clipPath>
</defs>
</svg>

<svg xmlns="http://www.w3.org/2000/svg" width="48" height="48" fill="none" viewBox="0 0 48 48">
  <g clip-path="url(#clip0_86:307)">
    <path fill="#000" d="M12.403 38h6.151V27.687h4.489L28.554 38h6.79l-6.18-11.307c3.31-1.42 5.143-4.304 5.143-8.281 0-5.781-3.821-9.503-10.426-9.503H12.403V38zm6.151-15.256v-8.806h4.148c3.55 0 5.27 1.576 5.27 4.474 0 2.884-1.72 4.332-5.242 4.332h-4.176z"/>
  </g>
  <defs>
    <clipPath id="clip0_86:307">
      <path fill="#fff" d="M0 0h48v48H0z"/>
    </clipPath>
  </defs>
</svg>
